X: 31745
T: Pat The Budgie
R: reel
M: 4/4
K: Dmajor
|:(D2 D)E/F/ ADFA|GFGA/B/ e3 d|cAA/A/A ^GABc|dB/c/de fdAF|
DD/D/A,F ADGF|GFGA/B/ e3 d|cAA/A/A ^GABc|1 dB/c/de dBAF:|2 dB/c/de d2 de/f/||
|:[gB]3 [gB] zbag|fdd/d/d dfed|cAA/A/A ^GABc|dB/c/de f2 de/f/|
g2 g/g/d gbag|fdd/d/d dfed|cAA/A/A ^GABc|1 dB/c/de d2 de/f/:|2 dB/c/de d2 e/f/g||
|:a2 z2 b3 ^g|abaf def/e/d|cAA/A/A ^GABc|dB/c/de fd e/f/g|
add/d/d b3 ^g|abaf def/e/d|cAA/A/A ^GABc|1 dB/c/de defg:|2 dB/c/de dBAF||

